X:13
T:Bedd y Morwr - The Sailor's Grave
M:6/8
L:1/8
Q:220
C:Trad. arr. J.T.
S:Blodau'r Grug
R:Jig
N:Slightly compressed
K:D
A | D2 D FAF | B2 c dcB | A2 A FDF | E2 D EFE | D2 D FAF | B2 c dcB | A2
B FDE | D3- D2 :||: A | F2 F GFG | A2 d A2 F | d2 d cBc | B2 ^A B2 c/2 d/2|
| =A2 A AFA | B2 c dcB | A2 B FDE | D3- D2 :||
